img/svg/snow.svg

<?xml version="1.0" encoding="UTF-8" standalone="no"?>
<!DOCTYPE svg PUBLIC "-//W3C//DTD SVG 1.0//EN" "http://www.w3.org/TR/2001/REC-SVG-20010904/DTD/svg10.dtd">
<svg
   xmlns:svg="http://www.w3.org/2000/svg"
   xmlns="http://www.w3.org/2000/svg"
   version="1.0"
   width="299"
   height="327"
   id="SnowFlakeSVG">
  <path
     d="M 133.71875,0.0 L 133.71875,40.71875 L 103.125,23.03125 L 87.59375,49.84375 L 133.71875,76.5625 L 133.71875,136.65625 L 81.90625,106.71875 L 81.8125,53.1875 L 50.8125,53.25 L 50.875,88.8125 L 15.5,68.375 L 0.0,95.21875 L 35.28125,115.59375 L 4.65625,133.21875 L 20.09375,160.09375 L 66.3125,133.5 L 118.3125,163.53125 L 66.5,193.4375 L 20.09375,166.75 L 4.65625,193.625 L 35.46875,211.375 L 0.09375,231.78125 L 15.59375,258.625 L 50.875,238.25 L 50.8125,273.59375 L 81.8125,273.65625 L 81.90625,220.34375 L 133.90625,190.34375 L 133.90625,250.15625 L 87.59375,277.0 L 103.125,303.8125 L 133.90625,286.0 L 133.90625,326.84375 L 164.90625,326.84375 L 164.90625,286.125 L 195.5,303.8125 L 211.03125,277.0 L 164.90625,250.28125 L 164.90625,190.1875 L 216.71875,220.125 L 216.8125,273.65625 L 247.8125,273.59375 L 247.75,238.03125 L 283.125,258.46875 L 298.625,231.625 L 263.34375,211.25 L 293.96875,193.625 L 278.53125,166.75 L 232.34375,193.34375 L 180.3125,163.3125 L 232.15625,133.375 L 278.53125,160.09375 L 293.96875,133.21875 L 263.15625,115.46875 L 298.53125,95.0625 L 283.03125,68.21875 L 247.75,88.59375 L 247.8125,53.25 L 216.8125,53.1875 L 216.71875,106.5 L 164.71875,136.5 L 164.71875,76.6875 L 211.03125,49.84375 L 195.5,23.03125 L 164.71875,40.84375 L 164.71875,0.0 L 133.71875,0.0 z"
     id="snowflake"
     style="fill:#000000;fill-opacity:1;stroke:none" />
</svg>

<?xml version="1.0" encoding="utf-8"?>
<!-- Generator: Adobe Illustrator 16.0.0, SVG Export Plug-In . SVG Version: 6.00 Build 0)  -->
<!DOCTYPE svg PUBLIC "-//W3C//DTD SVG 1.1//EN" "http://www.w3.org/Graphics/SVG/1.1/DTD/svg11.dtd">
<svg version="1.1" id="SnowFlakeSVG" xmlns:svg="http://www.w3.org/2000/svg"
	 xmlns="http://www.w3.org/2000/svg" xmlns:xlink="http://www.w3.org/1999/xlink" x="0px" y="0px" width="299px" height="327px"
	 viewBox="0 0 299 327" enable-background="new 0 0 299 327" xml:space="preserve">
<path id="snowflake" fill="#FFCB27" d="M133.719,0v40.719l-30.594-17.688L87.594,49.844l46.125,26.719v60.094l-51.812-29.938
	l-0.094-53.531l-31,0.062l0.062,35.562L15.5,68.375L0,95.219l35.281,20.375L4.656,133.219l15.438,26.875L66.312,133.5l52,30.031
	L66.5,193.438L20.094,166.75L4.656,193.625l30.812,17.75L0.094,231.781l15.5,26.844l35.281-20.375l-0.062,35.344l31,0.062
	l0.094-53.312l52-30v59.812L87.594,277l15.531,26.812L133.906,286v40.844h31v-40.719l30.594,17.688L211.031,277l-46.125-26.719
	v-60.094l51.812,29.938l0.094,53.531l31-0.062l-0.062-35.562l35.375,20.438l15.5-26.844l-35.281-20.375l30.625-17.625
	l-15.438-26.875l-46.188,26.594l-52.031-30.031l51.844-29.938l46.375,26.719l15.438-26.875l-30.812-17.75l35.375-20.406
	l-15.5-26.844L247.75,88.594l0.062-35.344l-31-0.062l-0.094,53.312l-52,30V76.688l46.312-26.844L195.5,23.031l-30.781,17.812V0
	H133.719z"/>
</svg>
